X: 18550
T: I Have Travelled France And Germany
R: waltz
M: 3/4
K: Gmajor
L:1/16
|:Bc d2dB|c3e d3c BAGF|G3A B2AG GFDB,|
C4 D3F G2G2|G6:|F2 GABc|d3e =f2dB c2c2|
c3e d2c2 BAGF|G3A B2AG F2D2|D6Bc de=fd|
c3e d2c2 BAGF|G3A B2AG GFDB,|C4 D3F G2G2|G6||

